src/svg/repo-force-push.svg

<svg height="16" width="12" xmlns="http://www.w3.org/2000/svg" viewBox="0 0 12 16">
  <path d="M10 9H8v7H6V9H4l2.25-3H4l3-4 3 4H7.75l2.25 3zM11 0H1C0.45 0 0 0.45 0 1v12c0 0.55 0.45 1 1 1h4v-1H1V11h4v-1H2V1h9v9H9v1h2v2H9v1h2c0.55 0 1-0.45 1-1V1c0-0.55-0.45-1-1-1z" />
</svg>

<?xml version="1.0" encoding="UTF-8" standalone="no"?>
<svg width="12px" height="16px" viewBox="0 0 12 16" version="1.1" xmlns="http://www.w3.org/2000/svg" xmlns:xlink="http://www.w3.org/1999/xlink">
    <!-- Generator: Sketch 3.7.1 (28215) - http://www.bohemiancoding.com/sketch -->
    <title>repo-force-push</title>
    <desc>Created with Sketch.</desc>
    <defs></defs>
    <g id="Octicons" stroke="none" stroke-width="1" fill="none" fill-rule="evenodd">
        <g id="repo-force-push" fill="#000000">
            <path d="M10,9 L8,9 L8,16 L6,16 L6,9 L4,9 L6.25,6 L4,6 L7,2 L10,6 L7.75,6 L10,9 L10,9 Z M11,0 L1,0 C0.45,0 0,0.45 0,1 L0,13 C0,13.55 0.45,14 1,14 L5,14 L5,13 L1,13 L1,11 L5,11 L5,10 L2,10 L2,1 L11,1 L11,10 L9,10 L9,11 L11,11 L11,13 L9,13 L9,14 L11,14 C11.55,14 12,13.55 12,13 L12,1 C12,0.45 11.55,0 11,0 L11,0 Z" id="Shape"></path>
        </g>
    </g>
</svg>
